X:1
T:Psalm 42 - Wie der Hirsch schreit - 7: Schlußchor
T:op. 42, MWV A 15 - Chorpartitur 
T:Felix Mendelssohn Bartholdy (1839)
T:Set by C. Höcker - Jan. 2016 - CC0
T:Set by C. Höcker - Jan. 2016 - CC0
T:Set by C. Höcker - Jan. 2016 - CC0
T:Set by C. Höcker - Jan. 2016 - CC0
T:Set by C. Höcker - Jan. 2016 - CC0
T:Set by C. Höcker - Jan. 2016 - CC0
T:Set by C. Höcker - Jan. 2016 - CC0
T:Set by C. Höcker - Jan. 2016 - CC0
T:Set by C. Höcker - Jan. 2016 - CC0
T:Set by C. Höcker - Jan. 2016 - CC0
T:Set by C. Höcker - Jan. 2016 - CC0
T:Set by C. Höcker - Jan. 2016 - CC0
Z:Set by C. Höcker - Jan. 2016 - CC0
%%score [ ( 1 2 ) 3 4 5 ]
L:1/8
Q:1/4=90
M:4/4
K:F
V:1 treble nm="Sopran"
V:2 treble 
V:3 treble nm="Alt"
V:4 treble-8 nm="Tenor"
V:5 bass nm="Bass"
V:1
"^Maestoso assai" z8 | z8 | z8 | z8 | z8 | z8 | z2!f! c4 d2 | !>!f2 e3/2 e/ e2 f2 | [cg]8 | %9
w: ||||||||See-|
 c2 c2 c2 c2 | c8 | d4 d3 d | !fermata![ce]8 || %13
w: le, und bist so|un-|ru- hig *|mir?|
[M:2/2]!ff![Q:1/2=105]"^Molto Allegro vivace" f4 d3 c | c8 | f4 d3 c | c8 | z8 | z4 c2 c2 | %19
w: Har- re auf|Gott!|Har- re auf|Gott!||Denn ich|
 d3 e f2 f2 | f4 e4 | c4 A3 G | G8 | c4 A3 G | G8- | G2 z4 z2 | z4 c2 c2 | g3 e d2 c2 | c4 c4 | %29
w: wer- de ihm noch|dan- ken.|Har- re auf|Gott!|Har- re auf|Gott!|_|Denn ich|wer- de ihm noch|dan- ken.|
 z8 | z8 | c4 c3 c | d4 z4 | d4 d3 d | =e8 | e4 e3 e | f4 z4 | c6 c2 | a4 e4 | f4 _e4 | d6 d2 | %41
w: ||Har- re auf|Gott!|Har- re auf|Gott!|Har- re auf|Gott!|Denn ich|wer- de|ihm noch|dan- ken,|
 f6 d2 | c4 f4 | a4 g2 f2 | e2 d2 c2 f2 | (A4 G3 F) | F4 z4 |[Q:1/2=110]"^Poco piu animato" z8 | %48
w: daß er|mei- nes|An- ge- sichts|Hil- fe und mein|Gott _ _|ist.||
 z8 | z8 | z8 | z8 | z8 | z8 | z8 | z8 | z8 | z8 | z8 | z8 | z8 |!f! f4 d3 c | c4 z2 c2 | f4 d3 c | %64
w: |||||||||||||Preis sei dem|Herrn, dem|Gott Is- ra-|
 c4 z2 c2 | F2 G2 A2 c2 | (=B2 c2 d2 f2 | e2 c2 f4- | f2 a2 g2 f2 | e2 c2) f4- | f4 =B4 | c8- | %72
w: els, von|nun an bis in|E- * * *||||* wig|keit,|
 c8- | c6 c2 | c2 d2 e2 g2 | (^c2 d2) e4 | A4 z2 E2 | (A2 =B2 ^c2) e2 | A4 z4 | d4 B3 A | %80
w: _|* von|nun an bis in|E- * wig\--|keit, in|E- * * wig-|keit!|Preis sei dem|
 A4 z2 G2 | d4 B3 A | A4 z2 d2 | G2 A2 B2 d2 | (g2 f2 _e2 d2 | _e2 d2 c2 B2 | A2) B2 c4 | %87
w: Herrn, dem|Gott Is- ra-|els, van|nun an bis in|E- * * *||* wig- keit,|
 z2 F2 B4- | B2 A2 c4- | c2 B2 _e4- | (e2 d2) c4 | f4 z4 | z8 | z8 | z8 | z8 | z8 | f4 d3 c | %98
w: von nun|* an bis|_ in E-|* * wig-|keit!||||||Preis sei dem|
 c6 c2 | (=B4 c4 | d4) z2 d2 | g4 =e3 d | d6 d2 | (^c4 d4 | e4) z4 | a4 f3 e | e4 z2 e2 | a4 f3 e | %108
w: Herrn, dem|Herrn, _|_ dem|Gott Is- ra-|els, dem|Gott! _|_|Preis sei dem|Herrn, dem|Gott Is- ra-|
 e4 z2!ff! A2 | d4 D4 | z4 A2 A2 | c6 c2 | c4 z2 d2 | B4 G4 | z4 B2 B2 | _e6 e2 | _e4 z4 | %117
w: els, von|nun an|bis in|E- wig-|keit, von|nun an|bis in|E- wig-|keit!|
!f! (F2 G2) A2 c2 | ^F6 F2 | (G2 A2) B2 d2 | A6 A2 | B2 c2 d2 f2 | =B8 | c2 d2 =e2 g2 | ^c6 c2 | %125
w: Preis _ sei dem|Herrn, dem|Gott _ Is- ra-|els, von|nun an bis in|E-||* wig-|
 d4 z4 | z8 | z8 |!f! c4 A3 G | G4 z2 c2 | f4 d3 c | c6 c2 | B4 B3 B | _A4 z2 A2 | B2 f2 _e2 _d2 | %135
w: keit!|||Preis sei dem|Herrn, dem|Gott Is- ra-|els, dem|Gott Is- ra-|els, von|nun an bis in|
 c8- | (c2 _g2 f2) _e2 | _d6 c2 | (B6 f2 | =e2 c2 f4- | f2 d2 =B2) G2 | c4 z2 c2 | =B4 f4 | %143
w: E-|* * * wig-|keit, in|E- *||* * * wig-|keit, in|E- wig\--|
 e4 z2 G2 | c2 d2 e2 g2 | c8- | (c2 d2 e2) g2 | A4 z4 | f4 _e3 d | d4 c4 | B4 c4 | d4 d3 d | =e8 | %153
w: keit, von|nun an bis in|E-|* * * wig-|keit!|Preis sei dem|Herrn, dem|Gott, dem|Gott Is- ra-|els!|
 f4 f3 f | f4 z2 B2 | (g8 | f4 =e4 | _e8 | d8 | c8 | B6) B2 | A4 z4 |!f! f4 d3 c | c4 z2 c2 | %164
w: Preis sei dem|Herrn in|E-|||||* wig-|keit!|Preis sei dem|Herrn, dem|
 f4 d3 c | c4 z2 c2 | (=B2 a2 g2 f2 | e2 d2 c2 =B2 | c6) c2 | c4 z4 |!ff! f4 d3 c | c4 z2 c2 | %172
w: Gott Is- ra-|els, in|E- * * *|* . * *|* wig-|keit!|Preis sei dem|Herrn, dem|
 f4 d3 c | c4 z2 c2 | (=B2 a2 g2 f2 | e2 d2 c2) =B2 | c4 c4 | c6 c2 | c4 f4 | f4 d4 | c6 c2 | %181
w: Gott Is- ra-|els, in|E- * * *|* * * wig\--|keit, in|E- wig-|keit, von|nun an|bis in|
 g6 g2 | a4 f4 | f4 d4 | c6 c2 | g6 g2 | a4 c4 | f8- | f4 e4 | f4 c4 | d4 g4 | c4 d4 | A8- | A8 | %194
w: E- wig-|keit, von|nun an|bis in|E- wig-|keit, von|nun|_ an|bis in|E- wig-|keit, in|E-||
 G8- | G8 | !fermata!F8 |] %197
w: wig-||keit!|
V:2
 x8 | x8 | x8 | x8 | x8 | x8 | x2 G4 A2 | c2 B3/2 B/ B2 d2 | x8 | c2 c2 c2 c2 | c8 | =B4 B3 B | %12
w: ||||||Was be-|trübst du dich, mei- ne||||* * in|
 x8 ||[M:2/2] x8 | x8 | x8 | x8 | x8 | x8 | x8 | x8 | x8 | x8 | x8 | x8 | x8 | x8 | x8 | x8 | x8 | %30
w: ||||||||||||||||||
 x8 | x8 | x8 | x8 | x8 | x8 | x8 | x8 | x8 | x8 | x8 | x8 | x8 | x8 | x8 | x8 | x8 | x8 | x8 | %49
w: |||||||||||||||||||
 x8 | x8 | x8 | x8 | x8 | x8 | x8 | x8 | x8 | x8 | x8 | x8 | x8 | x8 | x8 | x8 | x8 | x8 | x8 | %68
w: |||||||||||||||||||
 x8 | x8 | x8 | x8 | x8 | x8 | x8 | x8 | x8 | x8 | x8 | x8 | x8 | x8 | x8 | x8 | x8 | x8 | x8 | %87
w: |||||||||||||||||||
 x8 | x8 | x8 | x8 | x8 | x8 | x8 | x8 | x8 | x8 | x8 | x8 | x8 | x8 | x8 | x8 | x8 | x8 | x8 | %106
w: |||||||||||||||||||
 x8 | x8 | x8 | x8 | x8 | x8 | x8 | x8 | x8 | x8 | x8 | x8 | x8 | x8 | x8 | x8 | x8 | x8 | x8 | %125
w: |||||||||||||||||||
 x8 | x8 | x8 | x8 | x8 | x8 | x8 | x8 | x8 | x8 | x8 | x8 | x8 | x8 | x8 | x8 | x8 | x8 | x8 | %144
w: |||||||||||||||||||
 x8 | x8 | x8 | x8 | x8 | x8 | x8 | x8 | x8 | x8 | x8 | x8 | x8 | x8 | x8 | x8 | x8 | x8 | x8 | %163
w: |||||||||||||||||||
 x8 | x8 | x8 | x8 | x8 | x8 | x8 | x8 | x8 | x8 | x8 | x8 | x8 | x8 | x8 | x8 | x8 | x8 | x8 | %182
w: |||||||||||||||||||
 x8 | x8 | x8 | x8 | x8 | x8 | x8 | x8 | x8 | x8 | x8 | x8 | x8 | x8 | x8 |] %197
w: |||||||||||||||
V:3
 z8 | z8 | z8 | z8 | z8 | z8 | z2!f! E4 F2 | !>!A2 G3/2 G/ G2 B2 | B8 | B2 B2 B2 B2 | A8 | %11
w: ||||||Was be-|trübst du dich mei- ne|See-|le, und bist so|un-|
 _A4 A3 A | !fermata!G8 ||[M:2/2]!ff! A4 B3 A | A8 | A4 B3 A | A4 F2 F2 | G3 A B2 B2 | B4 A2 G2 | %19
w: ru- hig in|mir?|Har- re auf|Gott!|Har- re auf|Gott! Denn ich|wer- de ihm noch|dan- ken, ich|
 A3 B c2 d2 | G4 G4 | G4 F3 E | E8 | G4 F3 E | E8- | E2 z2 G2 G2 | c3 A G2 F2 | B8- | (B4 A4) | %29
w: wer- de ihm noch|dan- ken.|Har- re auf|Gott!|Har- re auf|Gott!|_ Denn ich|wer- de ihm noch|dan-||
 A4 z4 | z4 F2 F2 | c3 A G2 F2 | F4 D4 | D4 D3 D | A8 | G4 G3 G | F4 z4 | c6 c2 | A4 B4 | c4 ^F4 | %40
w: ken,|denn ich|wer- de ihm noch|dan- ken.|Har- re auf|Gott!|Har- re auf|Gott!|Denn ich|wer- de|ihm noch|
 G6 G2 | G6 G2 | A4 A4 | c4 B2 A2 | G2 B2 A2 G2 | (F4 E4) | F4 z4 | z8 | z8 | z8 | z8 | z8 | z8 | %53
w: dan- ken,|daß er|mei- nes|An- ge- sichts|Hil- fe und mein|Gott _|ist.|||||||
!f! c4 A3 G | G4 z2 G2 | c4 A3 G | G4 z2 G2 | C2 D2 E2 G2 | (^F2 G2 A2 c2 | B2 c2 d2 =F2 | %60
w: Preis sei dem|Herm, dem|Gott Is- ra-|els, von|nun an bis in|E- * * *||
 E2 F2 G2 B2 | A2 F2 B3) A | A4 z2 E2 | F4 B4 | A4 z4 | z4 z2 G2 | F2 E2 D2 =B,2 | G2 E2 C4 | z8 | %69
w: |* * * wig-|keit, in|E- wig-|keit,|von|nun an bis in|* * Ewigkeit,||
 z4 z2 F2 | (F2 A2 G2) F2 | E4 z2 G2 | C2 D2 E2 G2 | (E2 F2 G2 c2 | G2 A2 B2) G2 | G4 z2 E2 | %76
w: in|E- * * wig-|keit, von|nun an bis in|E- * * *|* * * wig\--|keit, von|
 E2 F2 G2 B2 | A6 A2 | A4 z4 | z8 | A4 G3 ^F | (^F4 G4-) | G4 ^F4 | G3 G G4 | z4 z2 G2 | %85
w: nun an bis in|E- wig-|keit!||Preis sei dem|Herrn _|_ in|E- wig- keit,|von|
 _E2 F2 G2 G2 | (F2 G2 A2) c2 | B2 z2 z4 | z2 F2 A4- | A2 B2 B2 B2 | (A2 B2 c2) A2 | F4 z2 F2 | %92
w: nun an bis in|E- * * wig-|keit,|von nun|_ an bis in|E- * * wig-|keit, von|
 F2 G2 A2 c2 | (^F8 | G2 =F2 _E2 D2 | _E2 F2 G2) B2 | A4 z4 | z8 | c4 _A3 G | G4 c4 | =B4 z4 | %101
w: nun an bis in|E-||* * * wig-|keit!||Preis sei dem|Herrn, dem|Herrn,|
 z4 z2 G2 | d4 _B3 A | A4 d4 | ^c4 z4 | d4 d3 A | A4 z2 ^c2 | d4 d3 A | A4 z2!ff! A2 | d4 D4 | %110
w: dem|Gott Is- ra-|els, dem|Gott!|Preis sei dem|Herrn, dem|Gott Is- ra-|els, von|nun an|
 z4 A2 A2 | A6 A2 | A4 z2 A2 | G4 G4 | z4 D2 D2 | G6 G2 | G4 z4 |!f! (F2 G2) A2 c2 | ^F6 F2 | %119
w: bis in|E- wig\--|keit, von|nun an|bis in|E- wig-|keit!|Preis _ sei dem|Herrn, dem|
 (G2 A2) B2 d2 | A6 A2 | B6 F2 | _A2 G2 F2 A2 | (G8 | (G2) E2 =A2) G2 | ^F4 z4 |!f! G4 E3 D | %127
w: Gott _ Is- ra-|els, von|nun, von|nun an bis in|E-|* * * wig-|keit!|Preis sei dem|
 D4 z4 | z8 | z2 G2 c4 | _A3 G G4- | G4 F4 | B4 G3 F | F4 z2 F2 | G2 _A2 G2 B2 | (_A8 | %136
w: Herrn,||dem Gott|Is- ra- els,|_ dem|Gott Is- ra-|els, von|nun an bis in|E-|
 =A2 B2 A2 c2 | B6) A2 | B4 z4 | z4 z2 c2 | =B4 F2 F2 | (E2 C2 F4- | F2 D2) =B,4 | C4 z4 | %144
w: |* wig-|keit,|von|nun an in|E- * *|* * wig-|keit!|
 c4 B3 A | A4 G4 | F4 E3 B | A4 z2 C2 | F2 G2 A2 c2 | F8- | (F2 G2 A2) A2 | B4 z4 | z8 | A4 A3 A | %154
w: Preis sei dem|Herrn, dem|Gott Is- ra-|els, von|nun an bis in|E-|* * * wig-|keit!||Preis sei dem|
 B4 z2 B2 | B8- | (B8 | c4 ^F4 | G8 | A8 | G6) G2 | F4 z4 |!f! G4 G3 A | A4 z2 A2 | G4 G3 A | %165
w: Herrn in|E-|||||* wig-|keit!|Preis sei dem|Herrn, dem|Gott Is- ra-|
 A4 z2 A2 | A2 A2 A2 A2 | A8- | A4 (B2 G2) | A4 z4 |!ff! G4 G3 A | A4 z2 A2 | G4 G3 A | A4 z2 A2 | %174
w: els, von|nun an bis in|E-|* wig- *|keit!|Preis sei dem|Herrn, dem|Gott Is- ra-|els, von|
 A2 A2 A2 A2 | A6 A2 | A4 A4 | B6 B2 | A4 B4 | A4 G4 | B6 B2 | B6 B2 | A4 B4 | A4 G4 | B6 B2 | %185
w: nun an bis in|E- wig-|keit, in|E- wi-|keit, von|nun an|bis in|E- wig-|keit, von|nun an|bis in|
 B6 B2 | (A8 | B4) A4 | G4 G4 | c4 c4 | =B4 _B4 | A4 G4 | F8- | F8 | E8- | E8 | !fermata!F8 |] %197
w: E- wig-|keit,|_ von|nun an|bis in|E- wig-|keit, in|E-||wig-||keit!|
V:4
 z2!f! F4 G2 | !>!B2 A3/2 A/ A2 B2 | c8 | F2 z F G2 A2 | B8 | A4 G2 F2 | c8- | c2 z2 c2 d2 | e8 | %9
w: Was be-|trübst du dich, mei- ne|See-|le, und bist so|un-|ru- hig- in|mir?|_ Mei- ne|See-|
 e2 e2 f2 g2 | c8 | f4 f3 f | !fermata!e8 ||[M:2/2]!ff! c4 f3 f | f8 | c4 f3 f | f4 c2 c2 | %17
w: le, und bist so|un-|ru- hig in|mir?|Har- re auf|Gott!|Har- re auf|Gott! Denn ich|
 d3 c B2 e2 | e4 f2 z2 | z8 | z8 | e4 f3 c | c8 | e4 f3 c | c4 c2 c2 | g3 e d2 c2 | c6 c2 | c4 c4 | %28
w: wer- de ihm noch|dan- ken,|||Har- re auf|Gott!|Har- re auf|Gott! Denn ich|wer- de ihm noch|dan- ken,|ihm noch|
 f4 F4 | z4 c2 c2 | f3 d c2 B2 | _e8 | d4 z4 | d4 d3 d | ^c8 | ^c4 c3 c | d4 z4 | =c6 c2 | c4 c4 | %39
w: dan- ken,|denn ich|wer- de ihm noch|dan-|ken.|Har- re auf|Gott!|Har- re auf|Gott!|Denn ich|wer- de|
 c4 c4 | d6 d2 | d6 f2 | f4 c4 | A4 B2 =B2 | c3 c c2 d2 | (c4 B4) | A4 z4 |!f! f4 d3 c | c4 z2 c2 | %49
w: ihm noch|dan- ken,|daß er|mei- nes|An- ge- sichts|Hil- fe und mein|Gott _|ist.|Preis sei dem|Herrn, dem|
 f4 d3 c | c4 z2 c2 | F2 G2 A2 c2 | =B2 c2 d2 f2 | (e2 c2 f4- | f2 e2 d3) d | c4 z2 f2 | %56
w: Gott Is- ra-|els, von|nun an bis in|E- wig\-- keit, in|E- * *|* * * wig-|keit, in|
 (f2 e2 d3) d | c4 z2 c2 | c2 _B2 A2 ^F2 | (G2 A2 B2 d2 | c2 d2 e2) g2 | f4 z4 | f4 c3 B | %63
w: E- * * wig-|keit, van|nun an bis in|E- * * *|* * * wig-|keit!|Preis sei dem|
 A4 z2 B2 | f4 c3 B | (A2 c2 f2) e2 | d2 c2 =B2 G2 |!f! c6 c2 | (=B2 f2 e2 d2 | c6) c2 | %70
w: Herrn, dem|Gott Is- ra-|els, _ _ von|nun an bis in|E- wig-|keit, _ _ _|_ in|
 (d2 f2 e2) d2 | c4 z4 | z4 z2 G2 | c2 d2 e2 g2 | (e2 f2 g2 e2 | A2 =B2 ^c2) e2 | (^c2 d2 e2) g2 | %77
w: E- * * wig-|keit,|von|nun an bis in|E- * * *|* * * wig-|keit, _ _ in|
 g8- | g2 f2 e2 ^c2 | d6 G2 | d6 d2 | c4 d4 | e4 A4 | d3 d d2 G2 | _E2 F2 G2 =B2 | (c2 d2 _e2 =e2 | %86
w: E-|* wig- keit, von|nun an|bis in|E- wig-|keit, in|E- wig- keit, von|nun an bis in|E- * * *|
 f6 _e2 | d6) B2 | F4 z2 c2 | d4 B4 | z8 | f4 d3 c | c4 z2 c2 | _e4 c3 =B | =B4 z2 G2 | %95
w: |* wig-|keit, van|nun an.||Preis sei dem|Herrn, dem|Gott Is- ra-|els, von|
 _e2 d2 c2 c2 | (c4 f2 _e2 | d2) c2 B4 | z8 | g4 _e3 d | d8 | z8 | z4 z2 G2 | A4 f3 e | e4 z4 | %105
w: nun an bis in|E- * *|* wig- keit!||Preis sei dem|Herrn,||dem|Gott Is- ra-|els!|
 f4 d3 ^c | ^c4 z2 A2 | f4 d3 ^c | ^c4 z2!ff! A2 | d4 D4 | z4 d2 d2 | d6 d2 | d4 z2 d2 | d4 B4 | %114
w: Preis sei dem|Herrn, dem|Gott Is- ra-|els, von|nun an|bis in|E- wig\--|keit, von|nun an|
 z4 B2 B2 | B6 B2 | B4 x4 | z8 |!f! (A2 B2) c2 _e2 | d6 B2 | (c2 d2) _e2 g2 | f4 z2 F2 | %122
w: bis in|E- wig-|keit!||Preis _ sei dem|Herrn, dem|Gott _ Is- ra-|els, von|
 F2 G2 _A2 F2 | G6 G2 | =A8 | z4 z2 d2 | (^c2 d2 e2) g2 | ^f2 d2 g4 | _e3 d d4 | z2 =B2 c4 | %130
w: nun an bis in|E- wig-|keit,|in|E- * * wig-|keit, dem Gott|Is- ra- els,|dem Gott|
 c3 =B B4 | z2 c2 f4 | _d3 c c4- | c2 F2 _d4- | d2 c2 B2 G2 | _e8- | (e2 _d2 c2) =A2 | f4 z4 | z8 | %139
w: Is- ra- els,|dem Gott|Is- ra- els,|_ van nun|_ an bis in|E-|* * * wig-|keit!||
!f! c4 _A3 G | G4 z2 G2 | c4 _A3 G | G4 z2 G2 | c2 d2 e2 g2 | c8- | (c2 d2 e2) g2 | c4 z4 | %147
w: Preis sei dem|Herrn, dem|Gott Is- ra-|els, van|nun an bis in|E-|* * * wig-|keit!|
 f4 _e3 d | d4 c4 | B4 A3 A | f4 _e4 | d4 d3 d | ^c8 | d4 d3 d | d4 z2 d2 | (_e8 | d4) c4 | (c8 | %158
w: Preis sei dem|Herrn, dem|Gott Is- ra-|els, dem|Gott Is- ra-|els!|Preis sei dem|Herrn in|E-|* wig-|keit,|
 d4) f4 | (f4 ^f4 | g4) e4 | =f4 z4 |!f! d4 f3 f | f4 z2 c2 | d4 f3 f | f4 z2 c2 | f2 f2 f2 f2 | %167
w: * in|E- *|* wig-|keit!|Preis sei dem|Herrn, dem|Gott Is- ra-|els, von|nun an bis in|
 f8- | (f2 ^f2) (g2 e2) | =f4 z4 |!ff! d4 f3 f | f4 z2 c2 | d4 f3 f | f4 z2 c2 | f2 f2 f2 f2 | %175
w: E-|* * wig- *|keit!|Preis sei dem|Herrn, dem|Gott Is- ra-|els, von|nun an bis in|
 f6 f2 | f4 ^f4 | g6 c2 | c4 d4 | f4 f4 | e6 e2 | e6 e2 | f4 d4 | f4 f4 | e6 e2 | e6 e2 | f8- | %187
w: E- wig-|keit, in|E- wig-|keit, von|nun an|bis in|E- wig-|keit, von|nun an|his in|E- wig-|keit,|
 f4 _e4 | d4 c4 | c4 f4 | d4 c4 | c4 f4 | c8- | c8 | B8- | B8 | !fermata!A8 |] %197
w: _ von|nun an|bis in|E- wig-|keit, in|E-||wig-||keit!|
V:5
 z2!f! F,4 G,2 | !>!B,2 A,3/2 A,/ A,2 B,2 | C8 | F,2 z F, G,2 A,2 | B,8 | A,4 G,2 F,2 | C8- | C8- | %8
w: Was be-|trübst du dich, mei- ne|See-|le, und bist so|un-|ru- hig- in|mir?|_|
 C8 | z2 C,2 D,2 E,2 | F,8 | F,4 F,3 F, | !fermata!C,8 ||[M:2/2]!ff! F,4 F,3 F, | F,8 | %15
w: |und bist so|un-|ru- hig in|mir?|Har- re auf|Gott!|
 F,4 F,3 F, | F,4 A,2 A,2 | B,3 A, G,2 G,2 | G,4 F,2 E,2 | F,3 G, A,2 =B,2 | C4 C,4 | C4 C3 C | %22
w: Har- re auf|Gott! Denn ich|wer- de ihm noch|dan- ken, ich|wer- de ihm noch|dan- ken.|Har- re auf|
 C8 | C4 C,3 C, | C,8 | z8 | z8 | z8 | z4 F,2 F,2 | C3 A, G,2 F,2 | F,6 F,2 | A,4 A,4 | B,4 B,,4 | %33
w: Gott!|Har- re auf|Gott!||||Denn ich|wer- de ihm noch|dan- ken,|ihm noch|dan- ken.|
 B,4 B,3 B, | A,8 | A,4 A,3 A, | D,4 z4 | C6 C2 | F,4 G,4 | A,4 A,4 | B,6 B,2 | =B,6 B,2 | C8 | %43
w: Har- re auf|Gott!|Har- re auf|Gott!|Denn ich|wer- de|ihm noch|dan- ken,|ihm noch|dan-|
 C4 z4 | z2 E,2 F,2 =B,,2 | C,8 | F,4 z4 | z8 | z8 | z8 | z8 | z8 | z8 | z8 | z8 | z8 | z8 | z8 | %58
w: ken,|daß er mein|Gott|ist.||||||||||||
 z8 | z8 | z8 | z8 | z8 | z8 | z8 | z8 | z8 | C4 A,3 G, | G,4 z2 G,2 | C4 A,3 G, | G,4 z2 G,2 | %71
w: |||||||||Preis sei dem|Herrn, dem|Gott Is- ra-|els, von|
 C,2 D,2 E,2 G,2 | (E,2 F,2 G,2) _B,2 | B,8- | B,6 B,2 | A,4 A,,4 | z8 | z4 z2 E,2 | %78
w: nun an bis in|E- * * wig-|keit,|_ von|nun an,||van|
 E,2 F,2 G,2 A,2 | ^F,2 D,2 G,4- | G,2 ^F,2 ((_B,4 | B,2) A,2 D4 | ^C4 =C4 | B,3) B, B,4 | z8 | %85
w: nun an bis in|E- wig- keit,|_ in E-|||* wig- keit!||
 z8 | z8 | B,4 G,3 F, | F,4 z2 F,2 | B,4 G,3 F, | F,4 z4 | D4 B,3 A, | A,4 z2 A,2 | C4 _A,3 G, | %94
w: ||Preis sei dem|Herrn, dem|Gott Is- ra-|els,|Preis sei dem|Herrn, dem|Gott Is- ra-|
 G,4 z2 G,2 | C,2 D,2 _E,2 G,2 | (F,2 _E,2 D,2 E,2 | F,6) F,2 | F,8 | z8 | G,4 G,3 G, | G,8- | %102
w: els, von|nun an bis m|E- * * *|* wig-|keit!||Preis sei dem|Herrn,|
 G,8 | z4 z2 D,2 | A,4 A,3 A, | A,4 z4 | A,4 A,3 A, | A,4 z4 | A,4 A,2!ff! A,2 | D4 D,4 | %110
w: _|dem|Gott Is- ra-|els!|Preis sei dem|Herrn,|Preis ihm, von|nun an|
 z4 ^F,2 F,2 | ^F,6 F,2 | ^F,4 z2 D,2 | G,4 G,,4 | z4 G,2 G,2 | G,6 G,2 | G,4 x4 | z8 | %118
w: bis in|E- wig-|keit, von|nun an|bis in|E- wig-|keit!||
!f! (C2 B,2) A,2 C2 | B,6 B,,2 | (_E,2 D,2) C,2 E,2 | D,4 z2 D,2 | D,6 D,2 | =E,3 E, E,4 | z8 | %125
w: Preis _ sei dem|Herrn, dem|Gott _ Is- ra-|els, von|nun in|E- wig- keit!||
!f! D4 B,3 A, | A,4 z2 A,2 | D4 B,3 A, | A,4 z2 D,2 | G,4 _E,3 D, | D,4 z2 G,2 | C4 _A,3 G, | %132
w: Preis sei dem|Herrn, dem|Gott Is- ra-|els, dem|Gott Is- ra-|els, dem|Gott Is- ra-|
 G,4 z2 C,2 | F,2 G,2 _A,2 _D2 | _E,6 E,2 | (_A,2 B,2 C2) _E2 | F,8 | B,2 F,2 B,2 C2 | _D4 _D,4 | %139
w: els, von|nun an bis in|E- wig-|keit, * * in|E-||* wig-|
 C,8- | C,8- | C,8- | C,4 z4 | C4 B,3 =A, | A,4 G,4 | F,4 E,3 D, | D,4 C,4 | F,2 G,2 A,2 C2 | %148
w: keit!|_|||Preis sei dem|Herrn, dem|Gott Is- ra-|els, von|nun an bis in|
 F,8- | (F,2 G,2 A,2) C2 | F,6 F,2 | B,4 B,3 B, | A,8 | D,4 D,3 D, | B,,4 z2 B,,2 | (_E,8 | %156
w: E-|* * * wig-|keit, dem|Gott Is- ra-|els!|Preis sei dem|Herrn in|E-|
 F,4 G,4 | A,8 | B,4 =B,4 | C8) | ^C8 | D4 z4 |!f! =B,4 B,3 C | C4 z2 C2 | =B,4 B,3 C | C4 z2 C,2 | %166
w: ||||wig-|keit!|Preis sei dem|Herrn, dem|Gott Is- ra-|els, von|
 D,2 D,2 D,2 D,2 | (D,8 | C,6) C,2 | F,4 z4 |!ff! =B,4 B,3 C | C4 z2 C2 | =B,4 B,3 C | C4 z2 C,2 | %174
w: nun an bis in|E-|* wig-|keit!|Preis sei dem|Herrn, dem|Gott Is- ra-|els, von|
 D,2 D,2 D,2 D,2 | D,6 D,2 | C,4 C,4 | C,6 C,2 | F,4 D4 | C4 =B,4 | C6 C,2 | C,6 C,2 | F,4 D4 | %183
w: nun an bis in|E- wig-|keit, in|E- wig-|keit, von|nun an|bis in|E- wig-|keit, van|
 C4 =B,4 | C6 C2 | C6 C2 | (F,4 _E4 | D4) C4 | =B,4 _B,4 | A,4 _A,4 | G,4 E,4 | F,4 B,,4 | C,8- | %193
w: nun an|bis in|E- wig-|keit, _|_ von|nun an|bis in|E- wig-|keit, in|E-|
 C,8 | C,8- | C,8 | !fermata!F,8 |] %197
w: |wig-||keit!|

